X:1
T:Oyster River Quadrille
M:6/8
L:1/8
S:Bob Walters (Burt County, Nebraska, 1949)
B:Christeson - Old Time Fiddler's Repertory vol. 1 (1973, No. 168)
K:A
c/d/|efe edc|ABA E2A|cBA BAG|Ace fga|
edf edc|ABA E2A|cBA BAG|A3 A2:|
|:e/g/|aeg aeg|a3- aeg|beg beg|b3-bge|
c'bc' a2a|ede fga|efe dcB|A3 A2:|]

